packages/icons/src/assets/mesh.svg

<svg xmlns="http://www.w3.org/2000/svg" width="24" height="24"><path d="M20.24 13.993V10a2.6 2.6 0 0 0 1.783-1.828c.18-.674.09-1.378-.263-1.985a2.627 2.627 0 0 0-3.58-.959c-.09.053-.165.113-.247.173l-3.416-1.933a2.7 2.7 0 0 0-.255-.652 2.62 2.62 0 0 0-3.573-.958 2.6 2.6 0 0 0-1.213 1.58L6.067 5.393a2.622 2.622 0 0 0-4.09 1.423 2.6 2.6 0 0 0 .263 1.986c.344.599.899 1.01 1.52 1.19v3.993c-.194.06-.382.127-.561.232a2.62 2.62 0 0 0 1.31 4.891c.442 0 .892-.112 1.304-.351a2 2 0 0 0 .24-.173l3.415 1.933c.06.225.135.442.255.652a2.63 2.63 0 0 0 2.27 1.31c.449 0 .898-.12 1.303-.352a2.6 2.6 0 0 0 1.213-1.58l3.409-1.948a2.63 2.63 0 0 0 1.565.517c.442 0 .892-.112 1.303-.352a2.627 2.627 0 0 0 .96-3.58 2.6 2.6 0 0 0-1.521-1.191zm-5.978 4.561a2.6 2.6 0 0 0-1.513-1.19v-2.48a2.95 2.95 0 0 0 1.243-.667l2.944 1.768c-.09.457-.067.944.098 1.4l-2.622 1.499c-.045-.113-.082-.217-.15-.322zm-4.667.307-2.636-1.49c.15-.42.195-.877.12-1.326l3.198-1.603c.292.202.622.352.974.442v2.48a3 3 0 0 0-.562.232c-.517.3-.884.749-1.094 1.265m-3.775-9.1c.202-.12.382-.27.547-.435l2.817 1.693c-.105.307-.18.629-.18.973 0 .457.112.877.292 1.266l-2.884 1.439a2.6 2.6 0 0 0-1.154-.712V9.993c.195-.06.382-.135.562-.24zm3.918-4.33a2.6 2.6 0 0 0 1.513 1.19V9.11c-.472.12-.891.352-1.243.666L7.064 8.007a2.55 2.55 0 0 0-.098-1.4l2.622-1.498c.045.112.082.217.15.322m4.667-.307 2.636 1.49c-.022.068-.06.135-.075.202a2.7 2.7 0 0 0-.045 1.124l-3.206 1.603a2.9 2.9 0 0 0-.966-.442v-2.48c.187-.06.382-.134.562-.239.517-.3.884-.749 1.094-1.266zM12 13.49a1.5 1.5 0 0 1-1.498-1.498c0-.825.674-1.499 1.498-1.499s1.498.675 1.498 1.499c0 .823-.674 1.498-1.498 1.498m6.18.726c-.21.12-.382.27-.54.435l-2.816-1.693c.105-.307.172-.63.172-.966 0-.457-.112-.884-.292-1.266l2.884-1.439c.322.345.72.585 1.154.712v3.992c-.195.06-.382.128-.562.233zm1.31-7.85a1.125 1.125 0 0 1 1.087 1.408 1.1 1.1 0 0 1-.525.682 1.116 1.116 0 0 1-1.528-.412 1.13 1.13 0 0 1-.112-.854c.075-.292.262-.532.524-.682.173-.105.367-.15.562-.15zm-8.044-3.22a1.113 1.113 0 0 1 1.116 1.925 1.124 1.124 0 0 1-1.528-.405 1.124 1.124 0 0 1 .404-1.528zM3.543 8.044a1.13 1.13 0 0 1-.112-.854c.075-.292.262-.532.524-.682a1.07 1.07 0 0 1 .562-.15 1.125 1.125 0 0 1 1.086 1.409 1.1 1.1 0 0 1-.524.681 1.116 1.116 0 0 1-1.528-.412zm1.528 9.408a1.12 1.12 0 0 1-1.528-.412 1.12 1.12 0 0 1 .412-1.528 1.116 1.116 0 0 1 1.528.412 1.12 1.12 0 0 1-.412 1.528m7.49 3.371c-.261.15-.561.187-.846.112a1.1 1.1 0 0 1-.674-.517 1.124 1.124 0 0 1 .405-1.528 1.104 1.104 0 0 1 1.52.412 1.124 1.124 0 0 1-.404 1.528zm7.491-3.37a1.12 1.12 0 0 1-1.528-.413 1.12 1.12 0 0 1 .412-1.528 1.116 1.116 0 0 1 1.528.412 1.12 1.12 0 0 1-.412 1.528"/></svg>

<svg width="100%" height="100%" viewBox="0 0 24 24" version="1.1" xmlns="http://www.w3.org/2000/svg" xmlns:xlink="http://www.w3.org/1999/xlink" xml:space="preserve" style="fill-rule:evenodd;clip-rule:evenodd;stroke-linejoin:round;stroke-miterlimit:2;"><path d="M20.24,13.993L20.24,10C21.112,9.745 21.79,9.05 22.023,8.172C22.203,7.498 22.113,6.794 21.76,6.187C21.039,4.945 19.426,4.513 18.18,5.228C18.09,5.281 18.015,5.341 17.933,5.401L14.517,3.468C14.461,3.241 14.375,3.021 14.262,2.816C13.543,1.575 11.932,1.143 10.689,1.858C10.091,2.203 9.654,2.771 9.476,3.438L6.067,5.393C5.616,5.059 5.069,4.879 4.508,4.879C3.327,4.879 2.285,5.676 1.977,6.816C1.796,7.486 1.891,8.202 2.24,8.802C2.584,9.401 3.139,9.812 3.76,9.992L3.76,13.985C3.566,14.045 3.378,14.112 3.199,14.217C2.387,14.684 1.886,15.552 1.886,16.488C1.886,17.925 3.068,19.108 4.506,19.108C4.507,19.108 4.508,19.108 4.509,19.108C4.951,19.108 5.401,18.996 5.813,18.757C5.897,18.705 5.977,18.648 6.053,18.584L9.468,20.517C9.528,20.742 9.603,20.959 9.723,21.169C10.192,21.977 11.058,22.477 11.993,22.479C12.442,22.479 12.891,22.359 13.296,22.127C13.894,21.782 14.331,21.214 14.509,20.547L17.918,18.599C18.371,18.935 18.92,19.116 19.483,19.116C19.925,19.116 20.375,19.004 20.786,18.764C22.029,18.043 22.461,16.43 21.746,15.184C21.411,14.607 20.866,14.18 20.225,13.993L20.24,13.993ZM14.262,18.554C13.929,17.979 13.387,17.552 12.749,17.364L12.749,14.884C13.211,14.765 13.638,14.537 13.992,14.217L16.936,15.985C16.846,16.442 16.869,16.929 17.034,17.385L14.412,18.884C14.367,18.771 14.33,18.667 14.262,18.562L14.262,18.554ZM9.595,18.861L6.959,17.371C7.109,16.951 7.154,16.494 7.079,16.045L10.277,14.442C10.569,14.644 10.899,14.794 11.251,14.884L11.251,17.364C11.056,17.422 10.868,17.5 10.689,17.596C10.172,17.896 9.805,18.345 9.595,18.861M5.82,9.761C6.022,9.641 6.202,9.491 6.367,9.326L9.184,11.019C9.079,11.326 9.004,11.648 9.004,11.992C9.004,12.449 9.116,12.869 9.296,13.258L6.412,14.697C6.097,14.362 5.699,14.116 5.258,13.985L5.258,9.993C5.453,9.933 5.64,9.858 5.82,9.753L5.82,9.761ZM9.738,5.431C10.071,6.006 10.613,6.433 11.251,6.621L11.251,9.11C10.779,9.23 10.36,9.462 10.008,9.776L7.064,8.007C7.163,7.54 7.129,7.055 6.966,6.607L9.588,5.109C9.633,5.221 9.67,5.326 9.738,5.431M14.405,5.124L17.041,6.614C17.019,6.682 16.981,6.749 16.966,6.816C16.872,7.183 16.857,7.566 16.921,7.94L13.715,9.543C13.423,9.337 13.095,9.188 12.749,9.101L12.749,6.621C12.936,6.561 13.131,6.487 13.311,6.382C13.828,6.082 14.195,5.633 14.405,5.116L14.405,5.124ZM12,13.49C11.179,13.489 10.503,12.813 10.502,11.992C10.502,11.167 11.176,10.493 12,10.493C12.824,10.493 13.498,11.168 13.498,11.992C13.498,12.815 12.824,13.49 12,13.49M18.18,14.216C17.97,14.336 17.798,14.486 17.64,14.651L14.824,12.958C14.929,12.651 14.996,12.328 14.996,11.992C14.996,11.535 14.884,11.108 14.704,10.726L17.588,9.287C17.91,9.632 18.308,9.872 18.742,9.999L18.742,13.991C18.547,14.051 18.36,14.119 18.18,14.224L18.18,14.216ZM19.49,6.366C20.106,6.367 20.613,6.875 20.613,7.491C20.613,7.586 20.601,7.682 20.577,7.774C20.502,8.063 20.312,8.309 20.052,8.456C19.882,8.554 19.689,8.606 19.493,8.606C19.093,8.606 18.722,8.391 18.524,8.044C18.375,7.785 18.335,7.478 18.412,7.19C18.487,6.898 18.674,6.658 18.936,6.508C19.109,6.403 19.303,6.358 19.498,6.358L19.49,6.366ZM11.446,3.146C11.609,3.058 11.791,3.011 11.977,3.011C12.587,3.011 13.09,3.514 13.09,4.124C13.09,4.51 12.89,4.868 12.562,5.071C12.031,5.375 11.344,5.193 11.034,4.666C10.729,4.135 10.911,3.449 11.438,3.138L11.446,3.146ZM3.543,8.044C3.394,7.785 3.354,7.478 3.431,7.19C3.506,6.898 3.693,6.658 3.955,6.508C4.125,6.407 4.319,6.355 4.517,6.358C5.133,6.359 5.639,6.867 5.639,7.483C5.639,7.579 5.627,7.674 5.603,7.767C5.528,8.056 5.339,8.301 5.079,8.448C4.909,8.546 4.716,8.598 4.52,8.598C4.12,8.598 3.749,8.383 3.551,8.036L3.543,8.044ZM5.071,17.452C4.539,17.758 3.849,17.572 3.543,17.04C3.237,16.508 3.423,15.818 3.955,15.512C4.125,15.414 4.318,15.362 4.514,15.362C4.914,15.362 5.285,15.577 5.483,15.924C5.789,16.456 5.603,17.146 5.071,17.452M12.561,20.823C12.3,20.973 12,21.01 11.715,20.935C11.43,20.86 11.187,20.674 11.041,20.418C10.737,19.887 10.919,19.2 11.446,18.89C11.615,18.791 11.808,18.739 12.004,18.739C12.402,18.739 12.771,18.955 12.966,19.302C13.271,19.833 13.089,20.519 12.562,20.83L12.561,20.823ZM20.052,17.453C19.52,17.758 18.83,17.572 18.524,17.04C18.218,16.508 18.404,15.818 18.936,15.512C19.106,15.414 19.299,15.362 19.495,15.362C19.895,15.362 20.266,15.577 20.464,15.924C20.77,16.456 20.584,17.146 20.052,17.452" style="fill-rule:nonzero;"/></svg>
